images/ic_token_ilrc.svg

<svg height="250" viewBox="0 0 250 250" width="250" xmlns="http://www.w3.org/2000/svg"><path d="m0 125c0-69.035156 55.964844-125 125-125s125 55.964844 125 125-55.964844 125-125 125-125-55.964844-125-125zm0 0" fill="#fff"/><path d="m159.214844 124.640625h76.5v.613281l-119.609375 73.519532 59.5-47.789063zm-44.929688-71.070313v146.429688l-60.714844-49.015625zm0 0" fill="#1c60ff"/></svg>

<svg xmlns="http://www.w3.org/2000/svg" xmlns:xlink="http://www.w3.org/1999/xlink" width="250px" height="250px" viewBox="0 0 250 250" version="1.1">
<g id="surface1">
<path style=" stroke:none;fill-rule:nonzero;fill:rgb(100%,100%,100%);fill-opacity:1;" d="M 0 125 C 0 55.964844 55.964844 0 125 0 C 194.035156 0 250 55.964844 250 125 C 250 194.035156 194.035156 250 125 250 C 55.964844 250 0 194.035156 0 125 Z M 0 125 "/>
<path style=" stroke:none;fill-rule:nonzero;fill:rgb(10.980392%,37.64706%,100%);fill-opacity:1;" d="M 159.214844 124.640625 L 235.714844 124.640625 L 235.714844 125.253906 L 116.105469 198.773438 L 175.605469 150.984375 Z M 114.285156 53.570312 L 114.285156 200 L 53.570312 150.984375 Z M 114.285156 53.570312 "/>
</g>
</svg>
